tools/download-figma-icons/icons/outlined-large/medal.svg

<svg width="64" height="64" viewBox="0 0 64 64" fill="none" xmlns="http://www.w3.org/2000/svg">
<path d="M32.001 63.9999C21.2597 63.9999 12.5087 55.23 12.5087 44.4501C12.5087 33.6701 21.2497 24.9002 32.001 24.9002C42.7523 24.9002 51.4934 33.6701 51.4934 44.4501C51.4934 55.23 42.7523 63.9999 32.001 63.9999ZM32.001 27.9102C22.9099 27.9102 15.5091 35.3301 15.5091 44.4601C15.5091 53.59 22.9099 61.0099 32.001 61.0099C41.0921 61.0099 48.493 53.59 48.493 44.4601C48.493 35.3301 41.0921 27.9102 32.001 27.9102Z" fill="black"/>
<path d="M37.0817 54.0996C36.8017 54.0996 36.5116 54.0296 36.2516 53.8896L32.0011 51.6397L27.7606 53.8796C27.1505 54.1996 26.4304 54.1496 25.8804 53.7496C25.3303 53.3497 25.0503 52.6797 25.1703 51.9997L25.9804 47.2397L22.54 43.8697C22.0499 43.3897 21.8799 42.6897 22.0899 42.0397C22.2999 41.3897 22.85 40.9297 23.5301 40.8297L28.2806 40.1398L30.4009 35.8098C30.7009 35.1998 31.311 34.8098 32.0011 34.8098C32.6812 34.8098 33.3012 35.1898 33.6013 35.8098L35.7215 40.1398L40.4721 40.8297C41.1422 40.9297 41.7023 41.3897 41.9123 42.0397C42.1223 42.6897 41.9523 43.3897 41.4722 43.8697L38.0218 47.2497L38.8319 52.0097C38.9519 52.6797 38.6719 53.3497 38.1218 53.7496C37.8118 53.9796 37.4418 54.0896 37.0717 54.0896L37.0817 54.0996ZM26.3904 43.4497L28.3807 45.3997C28.9007 45.8997 29.1307 46.6297 29.0107 47.3497L28.5407 50.0897L30.971 48.7997C31.621 48.4597 32.3911 48.4597 33.0312 48.7997L35.4615 50.0897L34.9915 47.3497C34.8714 46.6397 35.1015 45.9097 35.6215 45.3997L37.6118 43.4497L34.8814 43.0497C34.1614 42.9397 33.5313 42.4897 33.2112 41.8297L32.0011 39.3598L30.7809 41.8397C30.4609 42.4897 29.8408 42.9497 29.1207 43.0497L26.3804 43.4497H26.3904Z" fill="black"/>
<path d="M45.9925 32.26C45.7425 32.26 45.4925 32.2 45.2525 32.07C44.5324 31.66 44.2723 30.75 44.6824 30.03L61.1944 0.76022C61.6044 0.0402254 62.5145 -0.209773 63.2346 0.190224C63.9547 0.600221 64.2147 1.51021 63.8047 2.23021L47.3027 31.49C47.0227 31.98 46.5226 32.25 45.9925 32.25V32.26Z" fill="black"/>
<path d="M32.9409 27.37C32.6909 27.37 32.4408 27.31 32.2008 27.18C31.4807 26.77 31.2207 25.86 31.6307 25.14L45.3824 0.76022C45.7924 0.0402254 46.7025 -0.209773 47.4226 0.190224C48.1427 0.600221 48.4028 1.51021 47.9927 2.23021L34.251 26.6C33.971 27.09 33.471 27.36 32.9409 27.36V27.37Z" fill="black"/>
<path d="M18.0093 32.26C17.4892 32.26 16.9792 31.99 16.6992 31.5L0.19716 2.24021C-0.212889 1.52021 0.0371407 0.600221 0.757228 0.190224C1.48732 -0.209773 2.39743 0.0402254 2.80747 0.76022L19.3095 30.02C19.7195 30.74 19.4595 31.66 18.7394 32.06C18.5094 32.19 18.2493 32.25 17.9993 32.25L18.0093 32.26Z" fill="black"/>
<path d="M31.0608 27.3698C30.5408 27.3698 30.0307 27.0998 29.7507 26.6098L16.009 2.24002C15.599 1.52003 15.859 0.600033 16.5791 0.200036C17.2992 -0.209961 18.2193 0.0500371 18.6193 0.770032L32.361 25.1398C32.771 25.8598 32.511 26.7798 31.7909 27.1798C31.5609 27.3098 31.3009 27.3698 31.0508 27.3698H31.0608Z" fill="black"/>
</svg>

<svg xmlns="http://www.w3.org/2000/svg" width="64" height="64" fill="none" viewBox="0 0 64 64"><path fill="currentColor" d="M32.001 64c-10.741 0-19.492-8.77-19.492-19.55S21.249 24.9 32 24.9s19.492 8.77 19.492 19.55S42.753 64 32.001 64m0-36.09c-9.091 0-16.492 7.42-16.492 16.55s7.4 16.55 16.492 16.55c9.091 0 16.492-7.42 16.492-16.55s-7.4-16.55-16.492-16.55"/><path fill="currentColor" d="M37.082 54.1c-.28 0-.57-.07-.83-.21l-4.25-2.25-4.241 2.24c-.61.32-1.33.27-1.88-.13s-.83-1.07-.71-1.75l.81-4.76-3.441-3.37c-.49-.48-.66-1.18-.45-1.83s.76-1.11 1.44-1.21l4.75-.69 2.12-4.33c.3-.61.911-1 1.601-1 .68 0 1.3.38 1.6 1l2.12 4.33 4.751.69c.67.1 1.23.56 1.44 1.21s.04 1.35-.44 1.83l-3.45 3.38.81 4.76c.12.67-.16 1.34-.71 1.74-.31.23-.68.34-1.05.34zM26.39 43.45l1.99 1.95c.52.5.75 1.23.63 1.95l-.47 2.74 2.431-1.29c.65-.34 1.42-.34 2.06 0l2.43 1.29-.47-2.74c-.12-.71.11-1.44.63-1.95l1.99-1.95-2.73-.4c-.72-.11-1.35-.56-1.67-1.22l-1.21-2.47-1.22 2.48c-.32.65-.94 1.11-1.66 1.21l-2.74.4zm19.603-11.19a1.496 1.496 0 0 1-1.31-2.23L61.193.76c.41-.72 1.32-.97 2.04-.57.72.41.98 1.32.57 2.04L47.304 31.49c-.28.49-.78.76-1.31.76zM32.94 27.37a1.496 1.496 0 0 1-1.31-2.23L45.383.76c.41-.72 1.32-.97 2.04-.57.72.41.98 1.32.57 2.04L34.252 26.6c-.28.49-.78.76-1.31.76zm-14.93 4.89c-.52 0-1.03-.27-1.31-.76L.196 2.24A1.506 1.506 0 0 1 .757.19c.73-.4 1.64-.15 2.05.57L19.31 30.02A1.494 1.494 0 0 1 18 32.25z"/><path fill="currentColor" d="M31.06 27.37c-.52 0-1.03-.27-1.31-.76L16.01 2.24c-.41-.72-.15-1.64.57-2.04.72-.41 1.64-.15 2.04.57l13.742 24.37a1.494 1.494 0 0 1-1.31 2.23z"/></svg>
